X:12603
T:Dennis Murphy's
R:Polka
B:Tuneworks Tunebook (https://www.tuneworks.co.uk/)
G:Tuneworks
Z:Jon Warbrick <jon.warbrick@googlemail.com>
M:2/4
L:1/8
K:D
|: "D"f/g/f/e/ d/e/d/B/ | AD FA | "G"GE e>d | "A"cB c/B/A | "D"f/g/f/e/ d/e/d/B/ | AD FA | "G"GE "A"e>f | "D"ed d2 :|
|: "D"Af f/e/f | "G"Bg g/f/g | "D"Af f/e/f | "A"e/f/e/d/ BA | "D"Af f/e/f | "G"Bg g/f/g/a/ | "A"ba g/a/g/e/ | "D"ed d2 :| 
